resources/svg/insert-column-right.svg

<svg fill="currentColor" viewBox="0 0 24 24" xmlns="http://www.w3.org/2000/svg"><path d="M10 3C10.5523 3 11 3.44772 11 4V20C11 20.5523 10.5523 21 10 21H4C3.44772 21 3 20.5523 3 20V4C3 3.44772 3.44772 3 4 3H10ZM9 5H5V19H9V5ZM18 7C20.7614 7 23 9.23858 23 12C23 14.7614 20.7614 17 18 17C15.2386 17 13 14.7614 13 12C13 9.23858 15.2386 7 18 7ZM19 9H17V10.999L15 11V13L17 12.999V15H19V12.999L21 13V11L19 10.999V9Z"/></svg>

<svg xmlns="http://www.w3.org/2000/svg" viewBox="0 0 24 24" fill="currentColor">
    <g>
        <path fill="none" d="M0 0H24V24H0z"/>
        <path d="M10 3c.552 0 1 .448 1 1v16c0 .552-.448 1-1 1H4c-.552 0-1-.448-1-1V4c0-.552.448-1 1-1h6zM9 5H5v14h4V5zm9 2c2.761 0 5 2.239 5 5s-2.239 5-5 5-5-2.239-5-5 2.239-5 5-5zm1 2h-2v1.999L15 11v2l2-.001V15h2v-2.001L21 13v-2l-2-.001V9z"/>
    </g>
</svg>
